build/documents/XMLSolid.svg

<svg xmlns="http://www.w3.org/2000/svg" fill="none" viewBox="0 0 24 24" focusable="false"><path d="M0 0H24V24H0z"/><path fill="#74767B" fill-rule="evenodd" d="M6.66764 6.35009C6.66764 4.69324 8.01079 3.3501 9.66764 3.3501L17.6499 3.3501C19.3068 3.3501 20.6499 4.69324 20.6499 6.3501L20.6499 16.3655C20.6499 18.0224 19.3068 19.3655 17.6499 19.3655L9.66764 19.3655C8.01079 19.3655 6.66764 18.0224 6.66764 16.3655L6.66764 6.35009ZM11.511 9.31573C11.7951 9.53512 11.8476 9.94332 11.6282 10.2275L10.7686 11.3409L11.6339 12.4956C11.8492 12.7828 11.7908 13.1902 11.5035 13.4055C11.2163 13.6208 10.8089 13.5624 10.5936 13.2752L9.43179 11.7248C9.25658 11.491 9.2589 11.169 9.43744 10.9378L10.5992 9.433C10.8186 9.14885 11.2268 9.09635 11.511 9.31573ZM15.7398 12.4881C15.5204 12.7723 15.5729 13.1805 15.8571 13.3998C16.1412 13.6192 16.5494 13.5667 16.7688 13.2826L17.9306 11.7778C18.1092 11.5466 18.1115 11.2246 17.9363 10.9908L16.7745 9.44043C16.5592 9.15315 16.1518 9.09479 15.8645 9.31006C15.5772 9.52534 15.5189 9.93274 15.7342 10.22L16.5995 11.3747L15.7398 12.4881ZM14.3042 9.08817C14.6513 9.17991 14.8583 9.53564 14.7665 9.8827L13.8965 13.1739C13.8048 13.521 13.449 13.728 13.102 13.6362C12.7549 13.5445 12.5479 13.1887 12.6397 12.8417L13.5097 9.55047C13.6014 9.2034 13.9572 8.99642 14.3042 9.08817ZM5.36299 9.35214C5.36299 8.99316 5.07197 8.70214 4.71299 8.70214C4.354 8.70214 4.06299 8.99316 4.06299 9.35214L4.06299 18.8131C4.06299 20.5528 5.47329 21.9631 7.21299 21.9631L15.6563 21.9631C16.0153 21.9631 16.3063 21.6721 16.3063 21.3131C16.3063 20.9541 16.0153 20.6631 15.6563 20.6631L7.21299 20.6631C6.19126 20.6631 5.36299 19.8348 5.36299 18.8131L5.36299 9.35214Z"/></svg>

<svg xmlns="http://www.w3.org/2000/svg" fill="none" viewBox="0 0 24 24" focusable="false"><path fill="#74767B" fill-rule="evenodd" d="M6.66 6.35c0-1.66 1.35-3 3-3h7.98c1.66 0 3 1.34 3 3v10.01c0 1.66-1.34 3-3 3H9.66c-1.65 0-3-1.34-3-3zm4.85 2.96c.28.22.33.63.11.91l-.86 1.12.87 1.15a.651.651 0 0 1-1.04.78l-1.16-1.55a.645.645 0 0 1 0-.79l1.16-1.5c.22-.29.63-.34.92-.12m4.22 3.17c-.21.29-.16.7.12.91.29.22.69.17.91-.11l1.17-1.51c.17-.23.18-.55 0-.78l-1.16-1.55a.644.644 0 0 0-.91-.13c-.29.21-.35.62-.13.91l.86 1.15zm-1.43-3.4c.35.09.55.45.46.8l-.87 3.29a.652.652 0 0 1-1.26-.33l.87-3.29c.1-.35.45-.56.8-.47m-8.94.27c0-.36-.29-.65-.65-.65s-.65.29-.65.65v9.46a3.15 3.15 0 0 0 3.15 3.15h8.44c.36 0 .65-.29.65-.65s-.29-.65-.65-.65H7.21c-1.02 0-1.85-.83-1.85-1.85z"/></svg>
